X: 40764
T: Tourdion Des Vagues
R: jig
M: 6/8
K: Aminor
A3/2B/c B2 G|A3/2B/c d2 d|c3/2d/e d3/2c/B|A2 G A2 c|
e3/2f/e e3/2c/e|d2 c BAG|A3/2B/c B2 G|A2 G A3:|
|:e3/2f/e d3/2c/B|c3/2d/c B2 G|A3/2B/c B3/2A/G|A2 G A2 B|
c3/2d/e d2 c|B3/2c/d e2 B|A3/2B/c B3/2A/G|A2 G A3:|

